static/markerNavy.svg

<svg width="30" height="36" viewBox="0 0 30 36" fill="none" xmlns="http://www.w3.org/2000/svg">
<path d="M25.2 4.31671C22.14 1.25671 18.07 -0.173289 14.06 0.0167109C10.52 0.186711 7.02 1.61671 4.32 4.32671C-1.44 10.0867 -1.44 19.4367 4.32 25.2067L14.76 35.6467L25.2 25.2067C30.96 19.4467 30.96 10.0967 25.2 4.32671V4.31671Z" fill="#2E3666"/>
<path d="M15.4912 19.1785C16.1248 19.3247 17.4846 19.5479 19.0917 19.0708C19.2115 19.0362 19.3312 18.9977 19.4433 18.9554C21.3826 18.2628 22.8274 16.6429 23.4687 14.6959C23.7507 13.8379 23.9748 12.7951 23.9979 11.5946C24.052 8.85503 23.0321 6.84266 22.5454 6C22.499 6.60794 22.3175 7.83922 21.4907 9.11283C20.5752 10.5249 19.3699 11.2137 18.8174 11.483C19.1303 11.0136 19.6519 10.0748 19.7794 8.78577C19.8682 7.88155 19.7291 7.13124 19.5978 6.65027C19.3544 7.15048 18.914 7.91618 18.1259 8.58953C16.2832 10.1594 14.4482 9.59379 12.9647 10.8174C12.2694 11.3907 11.462 12.5142 11.3461 14.946" stroke="white" stroke-width="0.6" stroke-miterlimit="10"/>
<path d="M8.94704 18.9977C11.0872 16.866 13.4901 14.4727 13.749 14.2149C13.9962 13.9687 14.3168 13.8071 14.6645 13.784C15.2363 13.7416 15.8119 13.9379 16.2368 14.3419C16.6541 14.7382 16.8781 15.2884 16.8743 15.8464C16.8743 16.2504 16.6618 16.6236 16.3527 16.8853L15.6458 17.4894C13.2429 19.5364 10.8439 21.5872 8.44097 23.6342C8.04306 23.9728 7.48676 24.0998 6.99614 23.9151C6.78753 23.8381 6.57119 23.7073 6.3819 23.5072C6.3394 23.4611 6.29691 23.411 6.26214 23.3649C5.83719 22.7954 5.94922 21.9912 6.45144 21.4872L8.186 19.7595" stroke="white" stroke-width="0.6" stroke-miterlimit="10" stroke-linecap="round"/>
<path d="M16.3527 16.8854C16.1209 16.9624 15.159 17.2548 14.0889 16.7893C13.1386 16.3775 12.6982 15.6234 12.5707 15.3887" stroke="white" stroke-width="0.6" stroke-miterlimit="10"/>
<path d="M11.4349 16.6084C11.4852 16.9624 11.6242 17.6396 12.1071 18.3283C12.5321 18.9363 13.0304 19.2864 13.3279 19.4634" stroke="white" stroke-width="0.6" stroke-miterlimit="10"/>
</svg>

<svg xmlns="http://www.w3.org/2000/svg" width="30" height="36" fill="none"><path fill="#2E3666" d="M25.2 4.317a14.715 14.715 0 0 0-11.14-4.3c-3.54.17-7.04 1.6-9.74 4.31-5.76 5.76-5.76 15.11 0 20.88l10.44 10.44 10.44-10.44c5.76-5.76 5.76-15.11 0-20.88v-.01Z"/><path stroke="#fff" stroke-miterlimit="10" stroke-width=".6" d="M15.491 19.178a7.093 7.093 0 0 0 3.952-.223c1.94-.692 3.384-2.312 4.026-4.26.282-.857.506-1.9.529-3.1A10.8 10.8 0 0 0 22.545 6a6.682 6.682 0 0 1-3.728 5.483c.313-.47.835-1.408.962-2.697a5.93 5.93 0 0 0-.181-2.136 5.942 5.942 0 0 1-1.472 1.94c-1.843 1.57-3.678 1.004-5.161 2.227-.696.574-1.503 1.697-1.619 4.129"/><path stroke="#fff" stroke-linecap="round" stroke-miterlimit="10" stroke-width=".6" d="m8.947 18.998 4.802-4.783a1.44 1.44 0 0 1 .915-.431 2.063 2.063 0 0 1 1.573.558c.417.396.641.946.637 1.504 0 .404-.212.778-.521 1.04l-.707.603c-2.403 2.047-4.802 4.098-7.205 6.145-.398.339-.954.466-1.445.281a1.617 1.617 0 0 1-.734-.55c-.425-.57-.313-1.374.19-1.878l1.734-1.727"/><path stroke="#fff" stroke-miterlimit="10" stroke-width=".6" d="M16.353 16.885a3.216 3.216 0 0 1-2.264-.096 3.186 3.186 0 0 1-1.518-1.4M11.435 16.608a3.954 3.954 0 0 0 1.893 2.855"/></svg>
